!!!!SEGMENT: pl-wtm--r-1740-m--002-005_moniuszko-stanislaw--sonety-krymskie-ruina.krn
!!!cenid: 18xx:2922
!!!COM: Moniuszko, Stanisław
!!!COM-rismid: pe30008351
!!!CDT: 1819/05/05-1872/06/04
!!!CNT: Polish
!!!GTL: Sonety krymskie
!!!OTL: Ruina
!!!OMV: 005
!!!PDT:
!!!AGN: Secular; Sonnet
!!!SMS-siglum: PL-Wtm
!!!SMS-shelfmark: R 1740/M
!!!SMS-shelfwork: 002-005 G
!!!SMS-variant:
!!!SMS-altvar:
!!!NIFC-rismid: 1001096357
!!!URL-scan: http://repozytorium.nifc.pl/skany/pl-wtm-nut--r1740m
!!!ONB-nifc: UWAGA: w zbiorze 2 aranżacje Sonetów. Pliki nr 001-001-010 w obsadzie vl (2), vla, vlc, cb, physharmonica, pf 4hands i pliki 002-001-009 na instrumenty dęte od skanu 0088.
**kern	**dynam	**kern	**dynam	**kern	**dynam	**kern	**dynam	**kern	**dynam	**kern	**dynam	**kern	**dynam	**kern	**dynam	**kern	**dynam
*	*	*group3	*	*group3	*	*	*	*group2	*	*group2	*	*group1	*	*group1	*	*group1	*
*part9	*part9	*part8	*part8	*part7	*part7	*part6	*part6	*part5	*part5	*part4	*part4	*part3	*part3	*part2	*part2	*part1	*part1
*staff9	*	*staff8	*	*staff7	*	*staff6	*	*staff5	*	*staff4	*	*staff3	*	*staff2	*	*staff1	*
*Itimpa	*	*Iophic	*	*Itromt	*	*Itromp	*	*Icor	*	*Icor	*	*Ifagot	*	*Iclars	*	*Ioboe	*
*I"Timpani.	*	*I"e Ophicl:	*	*I"Tromboni.	*	*I"Trombe in C.	*	*I"Corni. in C	*	*I"Corni. in F.	*	*I"Fag.	*	*I"Clar. in B.	*	*I"Oboi.	*
*>[A,B,C,D,C,E,F,B,C,E,G]	*	*>[A,B,C,D,C,E,F,B,C,E,G]	*	*>[A,B,C,D,C,E,F,B,C,E,G]	*	*>[A,B,C,D,C,E,F,B,C,E,G]	*	*>[A,B,C,D,C,E,F,B,C,E,G]	*	*>[A,B,C,D,C,E,F,B,C,E,G]	*	*>[A,B,C,D,C,E,F,B,C,E,G]	*	*>[A,B,C,D,C,E,F,B,C,E,G]	*	*>[A,B,C,D,C,E,F,B,C,E,G]	*
*>A	*	*>A	*	*>A	*	*>A	*	*>A	*	*>A	*	*>A	*	*>A	*	*>A	*
*clefF4	*	*clefF4	*	*clefC4	*	*clefG2	*	*clefG2	*	*clefG2	*	*clefF4	*	*clefG2	*	*clefG2	*
*	*	*	*	*	*	*	*	*ITrd0c0	*	*ITrd4c7	*	*	*	*ITrd1c2	*	*	*
*k[]	*	*k[b-e-a-d-]	*	*k[b-e-a-d-]	*	*k[]	*	*k[]	*	*k[b-]	*	*k[b-e-a-d-]	*	*k[b-e-a-d-]	*	*k[b-e-a-d-]	*
*f:	*	*f:	*	*f:	*	*f:	*	*f:	*	*f:	*	*f:	*	*f:	*	*f:	*
*M8/8	*	*M8/8	*	*M8/8	*	*M8/8	*	*M8/8	*	*M8/8	*	*M8/8	*	*M8/8	*	*M8/8	*
*all\right	*	*all\right	*	*all\right	*	*all\right	*	*all\right	*	*all\right	*	*all\right	*	*all\right	*	*all\right	*
*2\right	*	*2\right	*	*2\right	*	*2\right	*	*2\right	*	*2\right	*	*2\right	*	*2\right	*	*2\right	*
=1	=1	=1	=1	=1	=1	=1	=1	=1	=1	=1	=1	=1	=1	=1	=1	=1	=1
*	*	*^	*	*	*	*	*	*^	*	*^	*	*	*	*	*	*	*
1ryy	.	1r	[1FF	p	1ryy	.	1ryy	.	2r	2ryy	pp	2ryy	2ryy	pp	1r	.	1ryy	.	1ryy	.
!	!	!	!	!	!	!	!	!	!LO:TX:t=P:problem:błędne wyświetlanie ligatury	!	!	!	!LO:TX:t=P:problem:błędne wyświetlanie ligatury	!	!	!	!	!	!	!
.	.	.	.	.	.	.	.	.	[2cc/	[>2cc\	.	[2F/	[>2F\	.	.	.	.	.	.	.
=2	=2	=2	=2	=2	=2	=2	=2	=2	=2	=2	=2	=2	=2	=2	=2	=2	=2	=2	=2	=2
!	!	!	!	!	!	!	!	!	!LO:TX:t=P:problem:błędne wyświetlanie ligatury	!	!	!	!LO:TX:t=P:problem:błędne wyświetlanie ligatury	!	!	!	!	!	!	!
1ryy	.	1r	4FF/]	.	1ryy	.	1ryy	.	2cc^/_	2cc\_>	.	2F/_	2F\_>	.	1r	.	1ryy	.	1ryy	.
.	.	.	4r	.	.	.	.	.	.	.	.	.	.	.	.	.	.	.	.	.
.	.	.	2r	.	.	.	.	.	8cc/]	8cc\]	.	8F/]	8F\]	.	.	.	.	.	.	.
.	.	.	.	.	.	.	.	.	8r	4.ryy	.	8r	4.ryy	.	.	.	.	.	.	.
.	.	.	.	.	.	.	.	.	4r	.	.	4r	.	.	.	.	.	.	.	.
*	*	*	*	*	*	*	*	*	*v	*v	*	*	*	*	*	*	*	*	*	*
*	*	*v	*v	*	*	*	*	*	*	*	*v	*v	*	*	*	*	*	*	*
=3	=3	=3	=3	=3	=3	=3	=3	=3	=3	=3	=3	=3	=3	=3	=3	=3	=3
!	!	!	!	!	!	!	!	!	!	!	!	!	!	!	!	!LO:TX:t=dęte:color=blue:note=otoczone ciemnoczerwoną obwódką	!
1ryy	.	1ryy	.	1ryy	.	1ryy	.	1r	.	1r	.	(8cL 8A-\	p	1ryy	.	1ryy	.
.	.	.	.	.	.	.	.	.	.	.	.	8B- 8G\	.	.	.	.	.
.	.	.	.	.	.	.	.	.	.	.	.	8A- 8F\	.	.	.	.	.
.	.	.	.	.	.	.	.	.	.	.	.	8GJ 8E-\	.	.	.	.	.
.	.	.	.	.	.	.	.	.	.	.	.	8FL 8D-/	.	.	.	.	.
.	.	.	.	.	.	.	.	.	.	.	.	8E- 8C/	.	.	.	.	.
.	.	.	.	.	.	.	.	.	.	.	.	8D- 8BB-/	.	.	.	.	.
.	.	.	.	.	.	.	.	.	.	.	.	8CJ 8AA-/)	.	.	.	.	.
=4	=4	=4	=4	=4	=4	=4	=4	=4	=4	=4	=4	=4	=4	=4	=4	=4	=4
*>B	*	*>B	*	*>B	*	*>B	*	*>B	*	*>B	*	*>B	*	*>B	*	*>B	*
!LO:TX:a:t=C=:color=red	!	!	!	!	!	!LO:TX:a:t=C=:color=red	!	!	!	!	!	!	!	!	!	!LO:TX:a:t=C=:color=red	!
1ryy	.	1ryy	.	1ryy	.	1ryy	.	1ryy	.	1ryy	.	4F 4FF/	.	1ryy	.	1ryy	.
.	.	.	.	.	.	.	.	.	.	.	.	4r	.	.	.	.	.
.	.	.	.	.	.	.	.	.	.	.	.	2r	.	.	.	.	.
!!LO:LB:g=original
=5	=5	=5	=5	=5	=5	=5	=5	=5	=5	=5	=5	=5	=5	=5	=5	=5	=5
*	*	*	*	*	*	*	*	*	*	*	*	*^	*	*	*	*	*
1ryy	.	1ryy	.	1ryy	.	1ryy	.	1ryy	.	1ryy	.	2r	2.ryy	.	1ryy	.	1ryy	.
.	.	.	.	.	.	.	.	.	.	.	.	4r	.	.	.	.	.	.
.	.	.	.	.	.	.	.	.	.	.	.	8r	8ryy	.	.	.	.	.
.	.	.	.	.	.	.	.	.	.	.	.	16.c/LL	8A-\	.	.	.	.	.
.	.	.	.	.	.	.	.	.	.	.	.	32dn/JJk	.	.	.	.	.	.
*	*	*	*	*	*	*	*	*	*	*	*	*v	*v	*	*	*	*	*
=6	=6	=6	=6	=6	=6	=6	=6	=6	=6	=6	=6	=6	=6	=6	=6	=6	=6
1ryy	.	1ryy	.	1ryy	.	1ryy	.	1ryy	.	1ryy	.	(8e-L 8G\	.	1ryy	.	1ryy	.
.	.	.	.	.	.	.	.	.	.	.	.	8dn 8F\	.	.	.	.	.
.	.	.	.	.	.	.	.	.	.	.	.	8c 8E-\	.	.	.	.	.
.	.	.	.	.	.	.	.	.	.	.	.	8BnJ 8Dn\	.	.	.	.	.
.	.	.	.	.	.	.	.	.	.	.	.	4.c 4.C\)	.	.	.	.	.
.	.	.	.	.	.	.	.	.	.	.	.	8r	.	.	.	.	.
=7	=7	=7	=7	=7	=7	=7	=7	=7	=7	=7	=7	=7	=7	=7	=7	=7	=7
1ryy	.	1ryy	.	1ryy	.	1ryy	.	1ryy	.	1ryy	.	(8e-L 8c\	.	1ryy	.	1ryy	.
.	.	.	.	.	.	.	.	.	.	.	.	8d-X 8B-\	.	.	.	.	.
.	.	.	.	.	.	.	.	.	.	.	.	8c 8A-\	.	.	.	.	.
.	.	.	.	.	.	.	.	.	.	.	.	8B-J 8G\	.	.	.	.	.
.	.	.	.	.	.	.	.	.	.	.	.	8A-L 8F\	.	.	.	.	.
.	.	.	.	.	.	.	.	.	.	.	.	8G 8E-\	.	.	.	.	.
.	.	.	.	.	.	.	.	.	.	.	.	8F 8D-\	.	.	.	.	.
.	.	.	.	.	.	.	.	.	.	.	.	8E-J 8C\	.	.	.	.	.
=8	=8	=8	=8	=8	=8	=8	=8	=8	=8	=8	=8	=8	=8	=8	=8	=8	=8
1ryy	.	1ryy	.	1ryy	.	1ryy	.	1ryy	.	1ryy	.	8A- 8F\)	.	1ryy	.	1ryy	.
.	.	.	.	.	.	.	.	.	.	.	.	8r	.	.	.	.	.
.	.	.	.	.	.	.	.	.	.	.	.	4r	.	.	.	.	.
.	.	.	.	.	.	.	.	.	.	.	.	2r	.	.	.	.	.
.	.	.	.	.	.	.	.	.	.	.	.	.	.	.	.	.	.
=9	=9	=9	=9	=9	=9	=9	=9	=9	=9	=9	=9	=9	=9	=9	=9	=9	=9
1ryy	.	1ryy	.	1ryy	.	1ryy	.	1ryy	.	1ryy	.	(2e- 2E-\	.	1ryy	.	1ryy	.
.	.	.	.	.	.	.	.	.	.	.	.	4.c 4.F\)	.	.	.	.	.
.	.	.	.	.	.	.	.	.	.	.	.	8d- 8D-\	.	.	.	.	.
!!LO:PB:g=original
=10	=10	=10	=10	=10	=10	=10	=10	=10	=10	=10	=10	=10	=10	=10	=10	=10	=10
*	*	*	*	*	*	*^	*	*^	*	*	*	*	*	*	*	*^	*
2r	.	1r	.	1r	.	2r	2.ryy	.	2r	2.ryy	.	2r	.	(4c 4F\	.	2r	.	2r	2.ryy	.
.	.	.	.	.	.	.	.	.	.	.	.	.	.	4B- 4G\	.	.	.	.	.	.
4r	.	.	.	.	.	4r	.	.	4r	.	.	4r	.	[4A- [>4F\)	.	4r	.	4r	.	.
!	!	!	!	!	!	!	!	!	!LO:N:vis=8.	!	!	!LO:N:vis=8.	!	!	!	!LO:N:vis=8.	!	!LO:N:vis=8.	!	!
8r	.	.	.	.	.	8r	8ryy	.	8r	8ryy	.	8r	.	8A-] 8F\]	.	8r	.	8r	8ryy	.
16.F\LL	ff	.	.	.	.	16.cc/LL	16.a-X\LL	ff	16.cc/LL	16.cc\LL	ff	16.B-LL 16.F/	ff	8r	.	16.a-LL 16.f/	ff	16.cc/LL	16.cc\LL	ff
32F\JJk	.	.	.	.	.	32gg/JJk	32a-\JJk	.	32cc/JJk	32cc\JJk	.	32fJJk 32F/	.	.	.	32a-JJk 32f/	.	32ff/JJk	32ff\JJk	.
*	*	*	*	*	*	*v	*v	*	*	*	*	*	*	*	*	*	*	*	*	*
=11	=11	=11	=11	=11	=11	=11	=11	=11	=11	=11	=11	=11	=11	=11	=11	=11	=11	=11	=11
!	!	!	!	!	!	!	!	!LO:TX:t=P:problem:błędne wyświetlanie ligatury	!	!	!	!	!LO:TX:t=P:problem:błędne wyświetlanie łuku	!	!	!	!LO:TX:t=P:problem:błędne wyświetlanie ligatury	!	!
4FTT\	sf >	1r	.	1r	.	[4ff [>4a-X\	>	[4cc/	[>4cc\	sf >	[2f [2F/	sf >	(2C (>2FF/	sf >	4.a- 4.f/	>	[4ff/	[>4ff\	sf >
!	!LO:DY:b:t=pp.	!	!	!	!	!	!	!	!	!	!	!	!	!	!	!	!	!	!
8F\	] pp	.	.	.	.	8ff] 8a-\]	]	8cc/]	8cc\]	]]	.	.	.	.	.	.	8ff/]	8ff\]	.
!LO:TX:a:i:t=( &colon;Echo &colon;)	!	!	!	!	!	!	!	!	!	!	!	!	!	!	!LO:TX:a:i:t=( &colon;Echo &colon;)	!	!LO:TX:i:a:t=( &colon;Echo &colon;)	!	!LO:DY:a
16.F\LL	.	.	.	.	.	8r	.	8r	2ryy	.	.	.	.	.	16.a-LL 16.f/	] p	16.cc/LL	8r	] p
32F\JJk	.	.	.	.	.	.	.	.	.	.	.	.	.	.	32a-JJk 32f/	.	32ff/JJk	.	.
!	!	!	!	!	!	!	!	!	!	!	!	!	!LO:TX:a:i:t=(Echo)	!	!	!	!	!	!
4FTT\	.	.	.	.	.	2r	.	2r	.	.	8f] 8F/]	]	4.c 4.F\))	] pp	4.a- 4.f/	.	4ff/	2r	.
.	.	.	.	.	.	.	.	.	.	.	8r	.	.	.	.	.	.	.	.
8F'\	.	.	.	.	.	.	.	.	.	.	4r	.	.	.	.	.	4r	.	.
8r	.	.	.	.	.	.	.	.	8ryy	.	.	.	16.cLL 16.A-\	.	8r	.	.	.	.
.	.	.	.	.	.	.	.	.	.	.	.	.	32d-JJk 32B-\	.	.	.	.	.	.
=12	=12	=12	=12	=12	=12	=12	=12	=12	=12	=12	=12	=12	=12	=12	=12	=12	=12	=12	=12
*	*	*	*	*	*	*	*	*	*	*	*	*	*	*	*^	*	*	*	*
2r	.	1r	.	1r	.	2r	.	2r	2.ryy	.	(>8c'/L	pp	(8cL 8A-'\	.	2r	2.ryy	.	2r	2.ryy	.
.	.	.	.	.	.	.	.	.	.	.	8c'/	.	8B- 8G'\	.	.	.	.	.	.	.
.	.	.	.	.	.	.	.	.	.	.	8c'/	.	8A- 8F'\	.	.	.	.	.	.	.
.	.	.	.	.	.	.	.	.	.	.	8c'/J	.	8B-J 8G'\)	.	.	.	.	.	.	.
4r	.	.	.	.	.	4r	.	4r	.	.	8c/)	.	[4c [>4A-\	.	4r	.	.	4r	.	.
.	.	.	.	.	.	.	.	.	.	.	8r	.	.	.	.	.	.	.	.	.
8r	.	.	.	.	.	8r	.	8r	8ryy	.	8r	.	8c] 8A-\]	.	8r	8ryy	.	8r	8ryy	.
16.F\LL	ff	.	.	.	.	16.a-XLL 16.f/	ff	16.cc/LL	16.cc\LL	ff	16.fLL 16.F/	ff	8r	.	16.a-/LL	16.a-\LL	ff	16.f/LL	16.f\LL	ff
32F\JJk	.	.	.	.	.	32ccJJk 32a-X/	.	32cc/JJk	32cc\JJk	.	32fJJk 32F/	.	.	.	32a-/JJk	32f\JJk	.	32cc/JJk	32cc\JJk	.
*	*	*	*	*	*	*	*	*	*	*	*	*	*	*	*v	*v	*	*	*	*
!!LO:LB:g=original
=13	=13	=13	=13	=13	=13	=13	=13	=13	=13	=13	=13	=13	=13	=13	=13	=13	=13	=13	=13
!	!	!	!	!	!	!	!	!	!	!	!	!	!	!	!	!LO:DY:b	!	!	!LO:DY:b
!	!	!	!	!	!	!	!	!	!LO:TX:t=P:problem:błędne wyświetlanie ligatury	!	!	!	!	!	!	!	!	!	!LO:HP:a
4FTT\	sf >	1r	.	1r	.	[4cc [>4a-X\	>	[4cc/	[>4cc\	>	[2f [2F/	.	(2C (2FF/	sf >	4.a- 4.f/	sf >	4.cc/	4.cc\	sf >
8F\	] pp	.	.	.	.	8cc] 8a-\]	]	8cc/]	8cc\]	]	.	.	.	.	.	.	.	.	.
!LO:TX:a:i:t=Echo	!	!	!	!	!	!	!	!	!	!	!	!	!	!	!LO:TX:i:a:t=( &colon;Echo &colon;)	!	!LO:TX:a:i:t=( &colon;Echo &colon;)	!	!LO:DY:a
16.F\LL	.	.	.	.	.	8r	.	8r	2ryy	.	.	.	.	.	16.a-LL 16.f/	] pp	16.f/LL	8r	] pp
32F\JJk	.	.	.	.	.	.	.	.	.	.	.	.	.	.	32a-JJk 32f/	.	32cc/JJk	.	.
4FTT\	.	.	.	.	.	4r	.	2r	.	.	8f] 8F/]	.	4.c 4.F\))	]	4a- 4f/	.	4.cc/	2r	.
.	.	.	.	.	.	.	.	.	.	.	8r	.	.	.	.	.	.	.	.
8F\	.	.	.	.	.	4r	.	.	.	.	4r	.	.	.	4ryy	.	.	.	.
8r	.	.	.	.	.	.	.	.	8ryy	.	.	.	16.cLL 16.A-\	.	.	.	8r	.	.
.	.	.	.	.	.	.	.	.	.	.	.	.	32d-JJk 32B-\	.	.	.	.	.	.
*	*	*	*	*	*	*	*	*v	*v	*	*	*	*	*	*	*	*v	*v	*
=14	=14	=14	=14	=14	=14	=14	=14	=14	=14	=14	=14	=14	=14	=14	=14	=14	=14
*M2/4	*	*M2/4	*	*M2/4	*	*M2/4	*	*M2/4	*	*M2/4	*	*M2/4	*	*M2/4	*	*M2/4	*
2r	.	2r	.	2r	.	2r	.	2r	.	2r	.	(8cL 8G'\	.	2r	.	2r	.
.	.	.	.	.	.	.	.	.	.	.	.	8d- 8B-'\	.	.	.	.	.
.	.	.	.	.	.	.	.	.	.	.	.	8A- 8F'\	.	.	.	.	.
.	.	.	.	.	.	.	.	.	.	.	.	8B-J 8G'\)	.	.	.	.	.
=15	=15	=15	=15	=15	=15	=15	=15	=15	=15	=15	=15	=15	=15	=15	=15	=15	=15
*M4/4	*	*M4/4	*	*M4/4	*	*M4/4	*	*M4/4	*	*M4/4	*	*M4/4	*	*M4/4	*	*M4/4	*
*met(c)	*	*met(c)	*	*met(c)	*	*met(c)	*	*met(c)	*	*met(c)	*	*met(c)	*	*met(c)	*	*met(c)	*
!	!	!	!	!	!	!	!	!	!	!	!	!	!LO:HP:t=cres.	!	!	!LO:TX:t=A:color=red:note=otoczone czerwoną obwódką	!
1ryy	.	1ryy	.	1ryy	.	1ryy	.	1ryy	.	2r	.	[4A- [>4D-\	<	8.d-L 8.B-^/	.	1ryy	.
.	.	.	.	.	.	.	.	.	.	.	.	.	.	16d-Jk 16B-/	.	.	.
.	.	.	.	.	.	.	.	.	.	.	.	4A-_ 4D-\_<	.	8.a-L 8.A-^/	.	.	.
.	.	.	.	.	.	.	.	.	.	.	.	.	.	16a-Jk 16g-X/	.	.	.
*	*	*	*	*	*	*	*	*	*	*	*^	*	*	*	*	*	*
!	!	!	!	!	!	!	!	!	!	!	!LO:HP:a	!LO:HP:b	!	!LO:HP:a	!	!LO:DY:b	!	!
!	!	!	!	!	!	!	!	!	!	!	!LO:DY:b	!	!	!	!	!LO:HP:a	!	!
!	!	!	!	!	!	!	!	!	!	!	!	!	!	!LO:DY:b	!	!	!	!
!	!	!	!	!	!	!	!	!	!	!	!	!	!	!	!	!	!	!
.	.	.	.	.	.	.	.	.	.	[4f [4F/	mf >	>	2A-] 2D-\]	sf > ]]	(>4dd- [4f/	sf >	.	.
.	.	.	.	.	.	.	.	.	.	8f] 8F/]	.	.	.	.	8a- 8f/])	.	.	.
.	.	.	.	.	.	.	.	.	.	8r	]	]	.	.	8r	]	.	.
*	*	*	*	*	*	*	*	*	*	*	*v	*v	*	*	*	*	*	*
=16	=16	=16	=16	=16	=16	=16	=16	=16	=16	=16	=16	=16	=16	=16	=16	=16	=16
*	*	*	*	*	*	*	*	*	*	*tremolo	*	*tremolo	*	*	*	*	*
!	!	!	!	!	!	!	!	!	!	!LO:TX:t=P:problem:cztery kropki ponad zapisem tremolo	!	!LO:TX:t=P:problem:cztery kropki ponad zapisem tremolo	!	!	!	!	!
1ryy	.	1ryy	.	1ryy	.	1ryy	.	1ryy	.	(8g-XL 8e-X'\	p	(8A-L 8D-'\	p	2r	.	1ryy	.
.	.	.	.	.	.	.	.	.	.	8g- 8e-'\	.	8A- 8D-'\	.	.	.	.	.
.	.	.	.	.	.	.	.	.	.	8g- 8e-'\	.	8A- 8D-'\	.	.	.	.	.
.	.	.	.	.	.	.	.	.	.	8g-J 8e-'\)	.	8A-J 8D-'\)	.	.	.	.	.
*	*	*	*	*	*	*	*	*	*	*Xtremolo	*	*Xtremolo	*	*	*	*	*
.	.	.	.	.	.	.	.	.	.	[4f [>4d-X\	.	4.A- 4.D-\	.	4r	.	.	.
.	.	.	.	.	.	.	.	.	.	8f] 8d-\]	.	.	.	8r	.	.	.
!	!	!	!	!	!	!	!	!	!	!	!	!LO:TX:a:i:t=( &colon;Echo &colon;)	!	!LO:TX:i:a:t=( &colon;Echo &colon;)	!	!	!
.	.	.	.	.	.	.	.	.	.	8r	.	16.A-LL 16.F\	.	16.a-LL 16.f/	.	.	.
.	.	.	.	.	.	.	.	.	.	.	.	32B-JJk 32G-X\	.	32b-JJk 32g-X/	.	.	.
!!LO:PB:g=original
=17	=17	=17	=17	=17	=17	=17	=17	=17	=17	=17	=17	=17	=17	=17	=17	=17	=17
*M2/4	*	*M2/4	*	*M2/4	*	*M2/4	*	*M2/4	*	*M2/4	*	*M2/4	*	*M2/4	*	*M2/4	*
2r	.	2r	.	2r	.	2r	.	2r	.	2r	.	(8cL 8A-'\	.	(8ccL 8a-'/	.	2ryy	.
.	.	.	.	.	.	.	.	.	.	.	.	8B- 8G-X'\	.	8b- 8g-X'/	.	.	.
.	.	.	.	.	.	.	.	.	.	.	.	8A- 8F'\	.	8a- 8f'/	.	.	.
.	.	.	.	.	.	.	.	.	.	.	.	8G-XJ 8E-'\)	.	8g-XJ 8e-'/)	.	.	.
=18	=18	=18	=18	=18	=18	=18	=18	=18	=18	=18	=18	=18	=18	=18	=18	=18	=18
*M4/4	*	*M4/4	*	*M4/4	*	*M4/4	*	*M4/4	*	*M4/4	*	*M4/4	*	*M4/4	*	*M4/4	*
*met(c)	*	*met(c)	*	*met(c)	*	*met(c)	*	*met(c)	*	*met(c)	*	*met(c)	*	*met(c)	*	*met(c)	*
*	*	*^	*	*	*	*	*	*	*	*	*	*	*	*	*	*	*
!	!	!LO:TX:b:i:t=Oph	!	!	!LO:TX:a:t=X:color=red	!	!	!	!	!	!LO:TX:b:t=O:color=blue	!	!	!LO:HP:t=cres.	!	!LO:HP:a	!	!
2r	.	1r	2r	.	1r	.	1r	.	1r	.	2r	.	[4A- 4F^\	<	8.fL 8.d-/	p <	2r	.
.	.	.	.	.	.	.	.	.	.	.	.	.	.	.	16fJk 16d-/	.	.	.
.	.	.	.	.	.	.	.	.	.	.	.	.	4A-] 4E-^\	.	8.a-L 8.c/	.	.	.
.	.	.	.	.	.	.	.	.	.	.	.	.	.	.	16a-Jk 16g-X/	.	.	.
!	!	!	!	!LO:DY:b	!	!	!	!	!	!	!	!LO:HP:b	!	!	!	!	!	!
!	!	!	!	!	!	!	!	!	!	!	!	!	!	!LO:DY:b:t=f.	!	!	!	!
!	!	!	!	!	!	!	!	!	!	!	!	!LO:DY:b	!	!	!	!	!	!
4FTT\	mf >	.	4.DD-/	mf >	.	.	.	.	.	.	[4f [4F/	f >	2A- 2D-^\	f > ]]	[4ff [4f/	[ f >	[4dd- [4f/	f >
8F\	]	.	.	.	.	.	.	.	.	.	8f] 8F/]	.	.	.	8ff] 8f/]	]	8dd-] 8f/]	]
8r	.	.	8ryy	]	.	.	.	.	.	.	8r	]	.	.	8r	.	8r	.
*	*	*v	*v	*	*	*	*	*	*	*	*	*	*	*	*	*	*	*
=19	=19	=19	=19	=19	=19	=19	=19	=19	=19	=19	=19	=19	=19	=19	=19	=19	=19
*>C	*	*>C	*	*>C	*	*>C	*	*>C	*	*>C	*	*>C	*	*>C	*	*>C	*
*	*	*	*	*	*	*	*	*	*	*tremolo	*	*tremolo	*	*	*	*	*
!	!	!	!	!	!	!	!	!LO:TX:b:t=A=:color=red	!	!LO:TX:t=P:problem:cztery kropki poniżej zapisu tremolo	!	!LO:TX:t=P:problem:cztery kropki ponad zapisem tremolo	!	!	!	!LO:TX:a:t=A=:color=red	!
1ryy	.	1ryy	.	1ryy	.	1ryy	.	1ryy	.	(>8A-X'/L	p	(8G-XL 8E-'\	p	1r	.	1r	.
.	.	.	.	.	.	.	.	.	.	8A-'/	.	8G- 8E-'\	.	.	.	.	.
.	.	.	.	.	.	.	.	.	.	8A-'/	.	8G- 8E-'\	.	.	.	.	.
.	.	.	.	.	.	.	.	.	.	8A-'/J)	.	8G-J 8E-'\)	.	.	.	.	.
*	*	*	*	*	*	*	*	*	*	*Xtremolo	*	*Xtremolo	*	*	*	*	*
!	!	!	!	!	!	!	!	!	!	!	!	!LO:TX:t=P:problem:błędne wyświetlanie łuku	!	!	!	!	!
.	.	.	.	.	.	.	.	.	.	4A-X/	.	(4F (>4D-X\	.	.	.	.	.
.	.	.	.	.	.	.	.	.	.	8r	.	16A- 16F\))	.	.	.	.	.
.	.	.	.	.	.	.	.	.	.	.	.	16r	.	.	.	.	.
.	.	.	.	.	.	.	.	.	.	8f 8F'/	p	8A- 8F'\	.	.	.	.	.
=20	=20	=20	=20	=20	=20	=20	=20	=20	=20	=20	=20	=20	=20	=20	=20	=20	=20
1r	.	1r	.	1r	.	1r	.	1r	.	8.fL 8.F^/	.	(<[2A- 2D-^\	.	2BX/	.	2.ryy	.
.	.	.	.	.	.	.	.	.	.	16fJk 16F/	.	.	.	.	.	.	.
.	.	.	.	.	.	.	.	.	.	8fL 8F'/	.	.	.	.	.	.	.
.	.	.	.	.	.	.	.	.	.	8fJ 8F'/	.	.	.	.	.	.	.
!	!	!	!	!	!	!	!	!	!	!	!	!	!	!LO:N:vis=4	!	!	!
.	.	.	.	.	.	.	.	.	.	8.fL 8.F^/	.	4.A-] 4.C^\)	.	4.c^>/	.	.	.
.	.	.	.	.	.	.	.	.	.	16fK 16F/	.	.	.	.	.	.	.
.	.	.	.	.	.	.	.	.	.	8fJ 8F/	.	.	.	.	.	8ryy	.
.	.	.	.	.	.	.	.	.	.	8r	.	16.cLL 16.A-\	.	16.a-LL 16.f/	.	16.a-/LL	.
.	.	.	.	.	.	.	.	.	.	.	.	32B-JJk 32G\	.	32b-JJk 32g/	.	32b-/JJk	.
=21	=21	=21	=21	=21	=21	=21	=21	=21	=21	=21	=21	=21	=21	=21	=21	=21	=21
*^	*	*^	*	*	*	*	*	*^	*	*	*	*	*	*	*	*^	*
!	!	!	!	!	!	!	!	!	!	!	!	!	!	!	!	!	!	!	!LO:TX:a:t=X:color=red	!	!
2r	2r	.	2r	2ryy	.	2r	.	1ryy	.	8cc^/L	4.ryy	.	4r	.	8A-L 8F^\	.	8ccL 8a-^/	.	8cc/L	4r	.
.	.	.	.	.	.	.	.	.	.	8cc^/	.	.	.	.	8Gn 8E-^\	.	8b- 8g-X^/	.	8cc/	.	.
.	.	.	.	.	.	.	.	.	.	8cc^/	.	.	8.r	.	8F 8Dn^\	.	8a- 8f^/	.	8cc/	8.r	.
.	.	.	.	.	.	.	.	.	.	16cc/L	16.ryy	.	.	.	16E-L 16C\	.	16ccL 16a-^/	.	16cc/L	.	.
.	.	.	.	.	.	.	.	.	.	32r	.	.	32ryy	.	32r	.	32r	.	32r	16ryy	.
.	.	.	.	.	.	.	.	.	.	32ff/JJk	32dd\	ff	32A-X 32F/	.	32DnJJk 32BBn\	.	32ffJJk 32dd-/	fff	32ffJJk 32dd-/	.	fff
!LO:TX:b:i:t=Tamtam\nNB. bei der Wieder=\nholung Tamtam schweigt.	!	!	!	!	!	!	!LO:DY:a	!	!	!	!	!	!	!	!	!	!	!	!	!	!
!	!	!	!	!	!	!	!LO:HP:a	!	!	!	!	!	!	!	!	!	!	!	!	!	!
!	!	!	!	!	!	!	!	!	!	!	!	!	!	!	!	!	!	!	!	!	!
!	!	!	!	!	!LO:HP:a	!	!	!	!	!	!	!	!	!	!	!	!	!	!	!	!
8.r	4FF\	ff	[4F/	[4BBn\	fff >	[4A- [>4Dn/	fff >	.	.	4.ff/	4.dd\	.	[4.A- [4.F/	.	[4.D [>4.BB\	fff >	[4.ff [>4.dd-\	>	[4.ff [>4.dd-\	2ryy	>
!LO:N:vis=28	!	!	!	!	!	!	!	!	!	!	!	!	!	!	!	!	!	!	!	!	!
!	!	!LO:DY:a	!	!	!	!	!	!	!	!	!	!	!	!	!	!	!	!	!	!	!
16F/	.	ff	.	.	.	.	.	.	.	.	.	.	.	.	.	.	.	.	.	.	.
!LO:N:vis=2	!	!LO:HP:b:t=dimin.	!	!	!	!	!	!	!	!	!	!	!	!	!	!	!	!	!	!	!
4FTT/	4ryy	>	8F/]	8BB\]	]] p	8A-] 8D/]	]] p	.	.	.	.	.	.	.	.	.	.	.	.	.	.
!	!	!	!	!	!	!	!	!	!	!	!	!	!	!	!	!	!LO:N:vis=8	!	!	!	!
.	.	.	8r	8ryy	.	8r	.	.	.	16ff/LL	16dd\LL	pp	16A-]LL 16F/]	.	16D]LL 16BB/]	.	16ff] 16dd-\]	]	16ff] 16dd-\]	.	]
!	!	!	!	!	!	!	!	!	!	!	!	!	!	!	!	!	!LO:N:vis=8	!	!	!	!
.	.	.	.	.	.	.	.	.	.	32r	32r	.	32r	.	32r	]	16r	.	16r	.	.
!	!	!	!	!	!	!	!	!	!	!LO:TX:b:i:t=(&colon;Echo&colon;)	!	!	!LO:TX:a:i:t=(&colon;Echo&colon;)	!	!LO:TX:a:i:t=(&colon;Echo&colon;)	!	!	!	!	!	!
.	.	.	.	.	.	.	.	.	.	32ff/JJk	32dd\JJk	.	32A-JJk 32F/	.	32DJJk 32BB/	.	.	.	.	.	.
*v	*v	*	*	*	*	*	*	*	*	*v	*v	*	*	*	*	*	*	*	*v	*v	*
*	*	*v	*v	*	*	*	*	*	*	*	*	*	*	*	*	*	*	*
!!LO:LB:g=original
=22	=22	=22	=22	=22	=22	=22	=22	=22	=22	=22	=22	=22	=22	=22	=22	=22	=22
*	*	*	*	*	*	*	*	*	*	*	*	*^	*	*	*	*	*
!	!	!	!	!	!	!	!	!	!	!	!LO:DY:a:t=pp.	!	!	!	!	!	!	!
!	!	!	!	!	!	!	!	!	!	!	!	!	!	!LO:DY:b:t=pp.	!	!	!	!
!	!	!	!	!	!	!	!	!	!LO:DY:b:t=pp.	!	!	!	!	!	!	!	!	!
2FTTT/	pp	1ryy	.	1ryy	.	1ryy	.	[4ff [>4dd\	pp	[4A-X [>4F/	pp	4.Dn 4.BBn/	4.ryy	pp	4r	.	4r	.
.	.	.	.	.	.	.	.	8ff] 8dd\]	.	8A-] 8F/]	.	.	.	.	8r	.	8r	.
.	.	.	.	.	.	.	.	8r	.	8r	.	8D/	8BB\	.	16.A-LL 16.F/	pp	16.a-LL 16.f/	pp
.	.	.	.	.	.	.	.	.	.	.	.	.	.	.	32B-JJk 32G/	.	32b-JJk 32g/	.
8C'>/L	.	.	.	.	.	.	.	2r	.	(>8A-'/L	.	(8E-L 8C\	2ryy	.	(>8cL 8A-'/	.	(8ccL 8a-'/	.
8C'>/	.	.	.	.	.	.	.	.	.	8B-'/	.	8En 8D-X'\	.	.	8B- 8G'/	.	8b- 8g'/	.
!	!	!	!	!	!	!	!	!	!	!LO:TX:a:t=ges	!	!	!	!	!	!	!	!
8C'>/	.	.	.	.	.	.	.	.	.	8c-X'/	.	8F 8Dn'\	.	.	8A- 8F'/	.	8a- 8f'/	.
!	!	!	!	!	!	!	!	!	!	!	!	!	!	!	!	!	!LO:TX:a:t==B:color=red	!
8C'>/J	.	.	.	.	.	.	.	.	.	8B-'/J)	.	8B-J 8En\)	.	.	8B-J 8G'/)	.	8gJ 8d-'/)	.
*	*	*	*	*	*	*	*	*	*	*	*	*v	*v	*	*	*	*	*
=23	=23	=23	=23	=23	=23	=23	=23	=23	=23	=23	=23	=23	=23	=23	=23	=23	=23
*>B	*>B	*>B	*>B	*>B	*>B	*>B	*>B	*>B	*>B	*>B	*>B	*>B	*>B	*>B	*>B	*>B	*>B
*^	*	*	*	*	*	*	*	*^	*	*^	*	*	*	*^	*	*	*
!	!	!	!	!	!	!	!	!	!	!	!	!	!	!	!	!	!	!	!LO:HP:a	!	!
!	!	!	!	!	!	!	!	!	!	!	!LO:DY:b:t=p.	!	!	!	!	!	!	!	!	!	!
4F/	1rFF	.	1ryy	.	1ryy	.	1ryy	.	8.ffL 8.dd-X\	4ryy	p <	8.A-X/L	8F\	<	8A- 8F\	.	8.A-/L	8A-\	<	8f 8d-/	.
.	.	.	.	.	.	.	.	.	.	.	.	.	8r	.	8r	.	.	8r	.	8r	.
.	.	.	.	.	.	.	.	.	16ffJk 16dd-\	.	.	16f/Jk	.	.	.	.	16A-/Jk	.	.	.	.
4r	.	.	.	.	.	.	.	.	8.cc/L	8cc\	.	8.g-X/L	4r	.	4r	.	8.a-/L	4r	.	4r	.
.	.	.	.	.	.	.	.	.	.	8r	.	.	.	.	.	.	.	.	.	.	.
.	.	.	.	.	.	.	.	.	16cc/Jk	.	.	16g-/Jk	.	.	.	.	16a-/Jk	.	.	.	.
!	!	!	!	!	!	!	!	!	!	!	!	!	!	!	!	!LO:DY:b	!	!	!LO:HP:a	!	!
2r	.	.	.	.	.	.	.	.	[4dd-X/	2r	[ sf >	[4f [4F/	2ryy	[ sf >	2A- 2D-\	sf > ]]	(>4dd-X [4f/	2ryy	[ sf >	2r	.
.	.	.	.	.	.	.	.	.	8dd-/]	.	.	8f] 8F/]	.	.	.	.	8a- 8f/])	.	.	.	.
.	.	.	.	.	.	.	.	.	8r	.	]	8r	.	]	.	.	8r	.	]	.	.
*	*	*	*	*	*	*	*	*	*v	*v	*	*	*	*	*	*	*v	*v	*	*	*
*v	*v	*	*	*	*	*	*	*	*	*	*v	*v	*	*	*	*	*	*	*
=24	=24	=24	=24	=24	=24	=24	=24	=24	=24	=24	=24	=24	=24	=24	=24	=24	=24
*	*	*	*	*	*	*	*	*	*	*tremolo	*	*tremolo	*	*	*	*	*
!	!	!	!	!	!	!	!	!	!	!LO:TX:t=P:problem:ponad zapisem tremolo cztery kropki i łuk	!	!	!LO:DY:a:t=pp.	!	!	!	!
!	!	!	!	!	!	!	!	!	!	!	!	!LO:TX:t=P:problem:ponad zapisem tremolo cztery kropki i łuk	!	!	!	!	!
!	!	!	!	!	!	!	!	!	!	!	!LO:DY:b:t=pp.	!	!	!	!	!	!
1ryy	.	1ryy	.	1ryy	.	1ryy	.	1ryy	.	(8g-XL 8e-X'\	pp	(8A-L 8D-'\	pp	1r	.	1r	.
.	.	.	.	.	.	.	.	.	.	8g- 8e-'\	.	8A- 8D-'\	.	.	.	.	.
.	.	.	.	.	.	.	.	.	.	8g- 8e-'\	.	8A- 8D-'\	.	.	.	.	.
.	.	.	.	.	.	.	.	.	.	8g-J 8e-'\)	.	8A-J 8D-'\)	.	.	.	.	.
*	*	*	*	*	*	*	*	*	*	*Xtremolo	*	*Xtremolo	*	*	*	*	*
.	.	.	.	.	.	.	.	.	.	(4f (4d-X\	.	2A- 2D-\	.	.	.	.	.
.	.	.	.	.	.	.	.	.	.	8a-X 8f\))	.	.	.	.	.	.	.
.	.	.	.	.	.	.	.	.	.	8r	.	.	.	.	.	.	.
=25	=25	=25	=25	=25	=25	=25	=25	=25	=25	=25	=25	=25	=25	=25	=25	=25	=25
*^	*	*^	*	*	*	*	*	*^	*	*	*	*	*	*	*	*	*
!	!	!	!	!	!	!	!	!	!	!	!	!	!	!	!	!	!	!LO:HP:a	!	!
!	!	!	!	!	!	!	!	!	!	!	!	!	!	!	!	!	!LO:TX:b:t=O:color=red	!	!	!
2r	1rFF	.	1r	2C\	.	1ryy	.	1r	.	4r	1r	.	2r	.	[4A- 4F\	.	8.fL 8.d-/	<	2r	.
.	.	.	.	.	.	.	.	.	.	.	.	.	.	.	.	.	16fJk 16d-/	.	.	.
.	.	.	.	.	.	.	.	.	.	4cc/	.	p <	.	.	4A-] 4F^\	.	8.a-L 8.c/	.	.	.
.	.	.	.	.	.	.	.	.	.	.	.	.	.	.	.	.	16a-XJk 16g/	.	.	.
4FTT/	.	mf >	.	4.DD-X\	mf >	.	.	.	.	[4dd-X/	.	[ f >	[4f [4F/	f >	2A- 2D-\	f > ]]	[4ff [4f/	[ f >	[4dd- [4f/	f >
!	!	!	!	!	!	!	!	!	!	!LO:TX:t=A=B:color=red	!	!	!	!	!	!	!	!	!	!
8F/	.	.	.	.	.	.	.	.	.	4dd-/]	.	.	8f] 8F/]	.	.	.	8ff] 8f/]	.	8dd-] 8f/]	.
8r	.	]	.	8r	]	.	.	.	.	.	.	]	8r	]	.	.	8r	]	8r	]
*v	*v	*	*	*	*	*	*	*	*	*v	*v	*	*	*	*	*	*	*	*	*
*	*	*v	*v	*	*	*	*	*	*	*	*	*	*	*	*	*	*	*
!!LO:PB:g=original
=26	=26	=26	=26	=26	=26	=26	=26	=26	=26	=26	=26	=26	=26	=26	=26	=26	=26
*>E	*>E	*>E	*>E	*>E	*>E	*>E	*>E	*>E	*>E	*>E	*>E	*>E	*>E	*>E	*>E	*>E	*>E
*	*	*	*	*	*	*	*	*	*	*	*	*	*	*	*	*^	*
!	!	!	!	!	!	!	!	!	!	!	!	!	!	!	!	!LO:TX:a:t=D=:color=red	!	!
!	!	!	!	!	!	!	!	!	!	!	!	!LO:TX:t=P:problem:takt zapisany na marginesie, w t. 26-27 brak koordynacji wertykalnej z pozostałymi partiami	!	!	!	!	!	!
!	!	!	!	!	!	!	!	!	!	!	!	!	!	!	!	!	!LO:TX:t=P:problem:błędne wyświetlanie ligatury	!
!	!	!	!	!	!	!	!	!LO:N:vis=1	!	!	!	!	!	!	!	!	!	!
1ryy	.	1ryy	.	1ryy	.	1r	.	[0c	.	[1A-X [>1F	.	[4A- [>4F\	.	[4c [>4A-/	.	[4f/	[>4f\	.
.	.	.	.	.	.	.	.	.	.	.	.	8A-] 8F\]	.	8c] 8A-/]	.	8f/]	8f\]	.
.	.	.	.	.	.	.	.	.	.	.	.	8r	.	8r	.	8r	8ryy	.
.	.	.	.	.	.	.	.	.	.	.	.	2r	.	2r	.	2r	2ryy	.
*	*	*	*	*	*	*	*	*	*	*	*	*	*	*	*	*v	*v	*
=27	=27	=27	=27	=27	=27	=27	=27	=27	=27	=27	=27	=27	=27	=27	=27	=27	=27
1ryy	.	1ryy	.	1ryy	.	1r	.	.	.	1A-] 1F]	.	4r	.	1r	.	1r	.
.	.	.	.	.	.	.	.	.	.	.	.	8r	.	.	.	.	.
.	.	.	.	.	.	.	.	.	.	.	.	4A- 4C\	.	.	.	.	.
.	.	.	.	.	.	.	.	.	.	.	.	4B- 4D-\	.	.	.	.	.
.	.	.	.	.	.	.	.	.	.	.	.	[8B- [>8Dn\	.	.	.	.	.
*	*	*	*	*	*	*	*	*	*	*clefF4	*	*	*	*	*	*	*
=28	=28	=28	=28	=28	=28	=28	=28	=28	=28	=28	=28	=28	=28	=28	=28	=28	=28
*	*	*	*	*	*	*	*	*	*	*^	*	*	*	*	*	*	*
*	*	*	*	*	*	*	*	*	*	*ITrd-3c-5	*	*	*	*	*	*	*	*
1ryy	.	1ryy	.	1ryy	.	1r	.	8c/]	.	(2F/	[2.FF\	.	8B-] 8D\]	.	2r	.	2r	.
.	.	.	.	.	.	.	.	8r	.	.	.	.	4c 4E-\	.	.	.	.	.
.	.	.	.	.	.	.	.	4r	.	.	.	.	.	.	.	.	.	.
.	.	.	.	.	.	.	.	.	.	.	.	.	8d-X 8E-\	.	.	.	.	.
.	.	.	.	.	.	.	.	2r	.	8d-X/)	.	<	8c 8F\	<	8r	.	4r	.
.	.	.	.	.	.	.	.	.	.	4d-/	.	.	4c 4F\	.	(8ccL 8a-^>/	.	.	.
.	.	.	.	.	.	.	.	.	.	.	8FF\]	.	.	.	8a- 8f/)	.	8r	.
.	.	.	.	.	.	.	.	.	.	8d-/	8ryy	[[	8c 8F\	[[	8ffJ 8a-'/	f	8aa- 8ff'\	f
*	*	*	*	*	*	*	*	*	*	*clefG2	*	*	*	*	*	*	*	*
*	*	*	*	*	*	*	*	*	*	*	*	*	*	*	*	*	*	*
*	*	*	*	*	*	*	*	*	*	*v	*v	*	*	*	*	*	*	*
=29	=29	=29	=29	=29	=29	=29	=29	=29	=29	=29	=29	=29	=29	=29	=29	=29	=29
*	*	*	*	*	*	*	*	*	*	*	*	*^	*	*	*	*^	*
*	*	*	*	*	*	*	*	*	*	*ITrd4c7	*	*	*	*	*	*	*	*	*
!	!	!	!	!	!	!	!	!	!	!	!LO:DY:b	!	!	!	!	!	!	!	!
!	!	!	!	!	!	!	!	!	!	!	!LO:HP:a	!	!	!	!	!	!	!	!
1ryy	.	1ryy	.	1ryy	.	1ryy	.	1ryy	.	[4e-X/	sf >	(4B-X 4G\	2ryy	sf >	8.ee-L 8.g^/	.	8.ggL 8.ee-^\	4.ryy	.
.	.	.	.	.	.	.	.	.	.	.	.	.	.	.	16dd-K 16f/	.	16ffK 16dd-\	.	.
.	.	.	.	.	.	.	.	.	.	8e-'/]	]	8c 8A-X'\)	.	]	8ccJ 8e-'/	.	8ee-J 8cc'\	.	.
!	!	!	!	!	!	!	!	!	!	!	!	!	!	!	!	!	!LO:TUP:a:problem:klamra łukowa	!	!LO:DY:a
.	.	.	.	.	.	.	.	.	.	8r	.	8r	.	.	8r	.	24ee-/LL	8r	p
.	.	.	.	.	.	.	.	.	.	.	.	.	.	.	.	.	24dd-/	.	.
.	.	.	.	.	.	.	.	.	.	.	.	.	.	.	.	.	24cc/JJ	.	.
.	.	.	.	.	.	.	.	.	.	2r	.	4r	2rFF	.	8r	.	8cc/	2r	.
!	!	!	!	!	!	!	!	!	!	!	!	!	!	!	!LO:TUP:a:problem:klamra łukowa	!	!	!	!
!	!	!	!	!	!	!	!	!	!	!	!	!	!	!	!LO:TUP:b:problem:klamra łukowa	!	!	!	!
.	.	.	.	.	.	.	.	.	.	.	.	.	.	.	24cc/LL	p	4.ryy	.	.
.	.	.	.	.	.	.	.	.	.	.	.	.	.	.	24b-/	.	.	.	.
.	.	.	.	.	.	.	.	.	.	.	.	.	.	.	24a-/JJ	.	.	.	.
.	.	.	.	.	.	.	.	.	.	.	.	8r	.	.	8.a-L 8.c/	.	.	.	.
.	.	.	.	.	.	.	.	.	.	.	.	8C/	.	.	.	.	.	.	.
.	.	.	.	.	.	.	.	.	.	.	.	.	.	.	16gJk 16B-/	.	.	.	.
*	*	*	*	*	*	*	*	*	*	*	*	*v	*v	*	*	*	*v	*v	*
=30	=30	=30	=30	=30	=30	=30	=30	=30	=30	=30	=30	=30	=30	=30	=30	=30	=30
*	*	*	*	*	*	*	*	*	*	*	*	*^	*	*	*	*	*
!	!	!	!	!	!	!	!	!	!	!	!	!LO:TX:a:i:t=Solo.	!	!	!	!	!LO:TX:a:t==E	!
8r	.	1ryy	.	1ryy	.	1ryy	.	1ryy	.	1ryy	.	[<1FF	1r	.	4f 4A-/	.	1r	.
!LO:TX:a:i:t=Timp	!	!	!	!	!	!	!	!	!	!	!	!	!	!	!	!	!	!
!LO:TX:i:a:t=Solo.	!	!	!	!	!	!	!	!	!	!	!	!	!	!	!	!	!	!
16.C/LL	p	.	.	.	.	.	.	.	.	.	.	.	.	.	.	.	.	.
32C/JJk	.	.	.	.	.	.	.	.	.	.	.	.	.	.	.	.	.	.
4F/	.	.	.	.	.	.	.	.	.	.	.	.	.	.	4r	.	.	.
8r	.	.	.	.	.	.	.	.	.	.	.	.	.	.	2r	.	.	.
16.C/LL	.	.	.	.	.	.	.	.	.	.	.	.	.	.	.	.	.	.
32C/JJk	.	.	.	.	.	.	.	.	.	.	.	.	.	.	.	.	.	.
4F/	.	.	.	.	.	.	.	.	.	.	.	.	.	.	.	.	.	.
*	*	*	*	*	*	*	*	*	*	*	*	*v	*v	*	*	*	*	*
!!LO:LB:g=original
=31	=31	=31	=31	=31	=31	=31	=31	=31	=31	=31	=31	=31	=31	=31	=31	=31	=31
*>F	*	*>F	*	*>F	*	*>F	*	*>F	*	*>F	*	*>F	*	*>F	*	*>F	*
!	!	!	!	!	!	!	!	!	!	!	!	!	!	!	!	!LO:TX:a:t=E:color=red	!
8r	.	1ryy	.	1ryy	.	1ryy	.	1ryy	.	1ryy	.	4FF/]	.	1r	.	1r	.
16.C/LL	.	.	.	.	.	.	.	.	.	.	.	.	.	.	.	.	.
32C/JJk	.	.	.	.	.	.	.	.	.	.	.	.	.	.	.	.	.
8C/L	.	.	.	.	.	.	.	.	.	.	.	4r	.	.	.	.	.
16.C/L	.	.	.	.	.	.	.	.	.	.	.	.	.	.	.	.	.
32C/JJk	.	.	.	.	.	.	.	.	.	.	.	.	.	.	.	.	.
*rep	*	*	*	*	*	*	*	*	*	*	*	*	*	*	*	*	*
8r	.	.	.	.	.	.	.	.	.	.	.	2r	.	.	.	.	.
16.C/LL	.	.	.	.	.	.	.	.	.	.	.	.	.	.	.	.	.
32C/JJk	.	.	.	.	.	.	.	.	.	.	.	.	.	.	.	.	.
*Xrep	*	*	*	*	*	*	*	*	*	*	*	*	*	*	*	*	*
*rep	*	*	*	*	*	*	*	*	*	*	*	*	*	*	*	*	*
8C/L	.	.	.	.	.	.	.	.	.	.	.	.	.	.	.	.	.
16.C/L	.	.	.	.	.	.	.	.	.	.	.	.	.	.	.	.	.
32C/JJk	.	.	.	.	.	.	.	.	.	.	.	.	.	.	.	.	.
*Xrep	*	*	*	*	*	*	*	*	*	*	*	*	*	*	*	*	*
=32	=32	=32	=32	=32	=32	=32	=32	=32	=32	=32	=32	=32	=32	=32	=32	=32	=32
!	!	!	!	!	!	!	!	!	!	!	!	!LO:TX:t=O:color=red	!	!	!	!LO:TX:t=E:color=red:note=otoczone niebieską obwódką	!
4F\	.	1ryy	.	1ryy	.	1ryy	.	1ryy	.	1ryy	.	(8cL 8A-\	.	1r	.	1r	.
.	.	.	.	.	.	.	.	.	.	.	.	8B- 8G\	.	.	.	.	.
4r	.	.	.	.	.	.	.	.	.	.	.	8A- 8F\	.	.	.	.	.
.	.	.	.	.	.	.	.	.	.	.	.	8GJ 8E-\	.	.	.	.	.
2r	.	.	.	.	.	.	.	.	.	.	.	8FL 8D-/	.	.	.	.	.
.	.	.	.	.	.	.	.	.	.	.	.	8E- 8C/	.	.	.	.	.
.	.	.	.	.	.	.	.	.	.	.	.	8D- 8BB-/	.	.	.	.	.
!	!	!	!	!	!	!	!	!	!	!	!	!LO:TX:i:t=come sopra C=B i D=E.:note=	!	!	!	!	!
.	.	.	.	.	.	.	.	.	.	.	.	8CJ 8AA-/)	.	.	.	.	.
=56	=56	=56	=56	=56	=56	=56	=56	=56	=56	=56	=56	=56	=56	=56	=56	=56	=56
*>G	*	*>G	*	*>G	*	*>G	*	*>G	*	*>G	*	*>G	*	*>G	*	*>G	*
!LO:TX:b:i:t=perdendosi	!	!	!	!	!	!	!	!	!	!	!	!	!	!	!	!LO:TX:a:t=E	!
8r	.	1ryy	.	1ryy	.	1ryy	.	1ryy	.	1ryy	.	1ryy	.	1r	.	1r	.
16.C/LL	.	.	.	.	.	.	.	.	.	.	.	.	.	.	.	.	.
32C/JJk	.	.	.	.	.	.	.	.	.	.	.	.	.	.	.	.	.
8C/L	.	.	.	.	.	.	.	.	.	.	.	.	.	.	.	.	.
16.C/L	.	.	.	.	.	.	.	.	.	.	.	.	.	.	.	.	.
32C/JJk	.	.	.	.	.	.	.	.	.	.	.	.	.	.	.	.	.
*rep	*	*	*	*	*	*	*	*	*	*	*	*	*	*	*	*	*
8r	.	.	.	.	.	.	.	.	.	.	.	.	.	.	.	.	.
16.C/LL	.	.	.	.	.	.	.	.	.	.	.	.	.	.	.	.	.
32C/JJk	.	.	.	.	.	.	.	.	.	.	.	.	.	.	.	.	.
*Xrep	*	*	*	*	*	*	*	*	*	*	*	*	*	*	*	*	*
*rep	*	*	*	*	*	*	*	*	*	*	*	*	*	*	*	*	*
8C/L	.	.	.	.	.	.	.	.	.	.	.	.	.	.	.	.	.
16.C/L	.	.	.	.	.	.	.	.	.	.	.	.	.	.	.	.	.
32C/JJk	.	.	.	.	.	.	.	.	.	.	.	.	.	.	.	.	.
*Xrep	*	*	*	*	*	*	*	*	*	*	*	*	*	*	*	*	*
=57	=57	=57	=57	=57	=57	=57	=57	=57	=57	=57	=57	=57	=57	=57	=57	=57	=57
1CTT;	.	1r;	.	1r;	.	1r;	.	1r;	.	1r;	.	1r;	.	1r;	.	1r;	.
==	==	==	==	==	==	==	==	==	==	==	==	==	==	==	==	==	==
*-	*-	*-	*-	*-	*-	*-	*-	*-	*-	*-	*-	*-	*-	*-	*-	*-	*-
!!!system-decoration: (<g1>{g2}s6{g3}s9)
!!!AIN: 1 clars 2 cor 1 fagot 1 oboe 1 ophic 1 timpa 1 tromp 1 tromt
!!!ENC: Tomasz Grochalski
!!!END: 2021-08-15
!!!ENC: Kamil Watkowski
!!!END: 2021-09-16
!!!RDF**kern: > = above
!!!RDF**kern: < = below
